!!!COM: Beethoven, Ludwig van
!!!CDT: 1770///-1827///
!!!ODT: 1823///-1824///
!!!OTL: String Quartet No. 12 in E-flat Major, Op. 127
!!!OPS: Op. 127
!!!OMV: Mvmt. 1
!!!OMD: Maestoso - Allegro
!!!PDT: 1826
!!!PPP: Mainz
!!!PPR: B. Schott S&ouml;hne
!!!ODE: Dem F&uuml;rsten Nicolaus von Galitzin gewidmet
!!!MPD: 1825/03/06
**kern	**dynam	**kern	**dynam	**kern	**dynam	**kern	**dynam
*staff4	*staff4	*staff3	*staff3	*staff2	*staff2	*staff1	*staff1
*Icello	*Icello	*Iviola	*Iviola	*Ivioln	*Ivioln	*Ivioln	*Ivioln
*clefF4	*clefF4	*clefC3	*clefC3	*clefG2	*clefG2	*clefG2	*clefG2
*k[b-e-a-]	*k[b-e-a-]	*k[b-e-a-]	*k[b-e-a-]	*k[b-e-a-]	*k[b-e-a-]	*k[b-e-a-]	*k[b-e-a-]
*E-:	*E-:	*E-:	*E-:	*E-:	*E-:	*E-:	*E-:
*M2/4	*M2/4	*M2/4	*M2/4	*M2/4	*M2/4	*M2/4	*M2/4
*MM48	*MM48	*MM48	*MM48	*MM48	*MM48	*MM48	*MM48
=1-	=1-	=1-	=1-	=1-	=1-	=1-	=1-
2EE- 2BB-	f	2E- 2B-	f	2G	f	2G 2e-	f
=2	=2	=2	=2	=2	=2	=2	=2
8EE- 8BB-	.	8E- 8B-	.	8G	.	8G 8e-	.
4FF	.	4D	.	4A-	.	4B-	.
8FF	.	8D	.	8A-	.	8B-	.
=3	=3	=3	=3	=3	=3	=3	=3
2EE- 2BB-	.	2E- 2B-	.	2G 2e-	.	2G 2g	.
=4	=4	=4	=4	=4	=4	=4	=4
8EE- 8BB-	.	8E- 8B-	.	8G 8e-	.	8G 8g	.
4AA-	.	4F 4B-	.	4d 4f	.	4B- 4f	.
8AA-	.	8F 8B-	.	8d 8f	.	8B- 8f	.
=5	=5	=5	=5	=5	=5	=5	=5
4.GG	.	4.E- 4.G	.	4.B- 4.e-	.	4.b-	.
8C	.	8E-	.	8c 8e-	.	8g	.
=6	=6	=6	=6	=6	=6	=6	=6
2AA-	.	[2E-	.	4.c 4.e-	.	8.cc	.
.	.	.	.	.	.	32b	.
.	.	.	.	.	.	32cc	.
.	.	.	.	.	.	(48b	p
.	.	.	.	.	.	48cc	.
.	.	.	.	.	.	48b	.
.	.	.	.	.	.	48cc	.
.	.	.	.	.	.	48b	.
.	.	.	.	.	.	48cc)	.
.	.	.	.	[8c	.	(64b	.
.	.	.	.	.	.	64cc	.
.	.	.	.	.	.	64b	.
.	.	.	.	.	.	64cc	.
.	.	.	.	.	.	64b	.
.	.	.	.	.	.	64cc	.
.	.	.	.	.	.	64dd	.
.	.	.	.	.	.	64cc)	.
=7	=7	=7	=7	=7	=7	=7	=7
*M3/4	*M3/4	*M3/4	*M3/4	*M3/4	*M3/4	*M3/4	*M3/4
*MM152	*MM152	*MM152	*MM152	*MM152	*MM152	*MM152	*MM152
(2.AA-	p	(4E-]	p	(2c]	.	(4cc	.
.	.	4C	.	.	.	4ff	.
.	.	[4F)	.	[4B-	.	4dd	.
=8	=8	=8	=8	=8	=8	=8	=8
2.GG	.	(4F]	.	2B-]	.	4b-	.
.	.	[2E-	.	.	.	4ee-	.
.	.	.	.	[4c	.	4cc)	.
=9	=9	=9	=9	=9	=9	=9	=9
2.FF	.	2E-]	.	2c]	.	(8b-	.
.	.	.	.	.	.	8a-)	.
.	.	.	.	.	.	(8a-	.
.	.	.	.	.	.	8g	.
.	.	[4D)	.	[4B-)	.	4a-)	.
=10	=10	=10	=10	=10	=10	=10	=10
2.GG)	.	(4D]	.	2B-]	.	2b-	.
.	.	4E-	.	.	.	.	.
.	.	4D-	.	4B	.	(4b	.
=11	=11	=11	=11	=11	=11	=11	=11
(2AA-	.	4C	.	2c	.	4cc	.
.	.	4A-	.	.	.	4ff	.
[4A-)	.	[4B-)	.	[4f	.	4dd	.
=12	=12	=12	=12	=12	=12	=12	=12
(4A-]	.	(2B-]	.	4f]	.	4b-	.
4G	.	.	.	2e-	.	4ee-	.
4A-	.	4A-)	.	.	.	4cc)	.
=13	=13	=13	=13	=13	=13	=13	=13
4BB-	.	(2.F	.	4d	.	(8b-	.
.	.	.	.	.	.	8a-)	.
4C)	.	.	.	&(4e-&)	.	(8a-	.
.	.	.	.	.	.	8g	.
(8C	.	.	.	(8e-	.	4a-)	.
8D	.	.	.	8f	.	.	.
=14	=14	=14	=14	=14	=14	=14	=14
4E-	.	4G	.	4B-)	.	4g	.
4F	.	4A-	.	4r	.	4r	.
4G)	.	8B-	.	4r	.	4r	.
.	.	8B)	.	.	.	.	.
=15	=15	=15	=15	=15	=15	=15	=15
(2.A-	.	(4c	.	4r	.	2.r	.
.	.	4f	.	4r	.	.	.
.	.	4d	.	4r	.	.	.
=16	=16	=16	=16	=16	=16	=16	=16
2.G	.	4B-	.	(4b-	p	2.r	.
.	.	4e-	.	4ee-	.	.	.
.	.	4c)	.	4cc)	.	.	.
=17	=17	=17	=17	=17	=17	=17	=17
2.F	.	(8B-	.	(8b-	.	(4dd	p
.	.	8A-)	.	8a-)	.	.	.
.	.	(8A-	.	(8a-	.	4bb-	.
.	.	8G	.	8g	.	.	.
.	.	4A-)	.	4a-)	.	4dd	.
=18	=18	=18	=18	=18	=18	=18	=18
2G)	.	(4c	.	4cc	.	4ee-	.
.	.	4B-	.	4b-	.	4bb-	.
(4GG	.	[4E-	.	4b	.	4bb)	.
=19	=19	=19	=19	=19	=19	=19	=19
8AA-	.	4E-]	.	(4cc	.	(4ccc	.
8GG	.	.	.	.	.	.	.
8AA-	.	4C	.	4ff	.	4fff	.
8C	.	.	.	.	.	.	.
8BB-	.	4F)	.	4dd	.	4ddd	.
8AA-	.	.	.	.	.	.	.
=20	=20	=20	=20	=20	=20	=20	=20
8GG	.	(8B-	.	4b-	.	4bb-	.
8EE-	.	8G	.	.	.	.	.
8FF	.	8A-	.	4ee-	.	4eee-	.
8GG	.	8B-	.	.	.	.	.
8AA-	.	8E-	.	4cc)	.	4ccc)	.
8AA	.	8F)	.	.	.	.	.
=21	=21	=21	=21	=21	=21	=21	=21
4BB-	.	(8G	.	(8b-	.	(8bb-	.
.	.	8F)	.	8a-)	.	8aa-)	.
4C	.	(8F	.	(8a-	.	(8aa-	.
.	.	8E-	.	8g	.	8gg	.
4D)	.	4F) 4A-	.	4B-) 4f	.	4ff)	.
=22	=22	=22	=22	=22	=22	=22	=22
4E-	.	8G	.	8B-	.	4ee-	.
.	.	8c	.	8B- 8e-	.	.	.
4G	.	8E- 8G	.	8B- 8e-	.	4G 4e-	.
.	.	8E- 8G	.	8B- 8e-	.	.	.
4B-	f	8E- 8G	f	8B- 8e-	f	[4ee-	f
.	.	8E- 8G	.	8B- 8e-	.	.	.
=23	=23	=23	=23	=23	=23	=23	=23
4e-	.	8E- 8G	.	8B- 8e-	.	2ee-]	.
.	.	8E- 8G	.	8B- 8e-	.	.	.
4r	.	8E- 8G	.	8B- 8e-	.	.	.
.	.	8E- 8G	.	8B- 8e-	.	.	.
4r	.	8E- 8G	.	8B- 8e-	.	(8ff	.
.	.	8E- 8G	.	8B- 8e-	.	8gg)	.
=24	=24	=24	=24	=24	=24	=24	=24
4r	.	8F 8A-	.	8B- 8d	.	(2bb-	.
.	.	8F 8A-	.	8B- 8d	.	.	.
4r	.	8F 8A-	.	8B- 8d	.	.	.
.	.	8F 8A-	.	8B- 8d	.	.	.
[4BB-	.	8F 8A-	.	8B- 8d	.	8aa-	.
.	.	8F 8A-	.	8B- 8d	.	8gg)	.
=25	=25	=25	=25	=25	=25	=25	=25
2BB-]	.	8F 8A-	.	8B- 8d	.	(8gg	.
.	.	8F 8A-	.	8B- 8d	.	8ff)	.
.	.	8F 8A-	.	8B- 8d	.	(8ee-	.
.	.	8F 8A-	.	8B- 8d	.	8dd	.
(8C	.	8F 8A-	.	8B- 8e-	.	8cc	.
8D)	.	8F 8A-	.	8B- 8f	.	8b-)	.
=26	=26	=26	=26	=26	=26	=26	=26
(4.F	.	8D 8B-	.	8B- 8d	.	(4a-	.
.	.	8D 8B-	.	8B- 8d	.	.	.
.	.	8E- 8B-	.	8B- 8e-	.	4g)	.
8E-)	.	8E- 8G	.	8B- 8e-	.	.	.
8BB-	.	8E- 8G	.	8B- 8e-	.	[4ee-	.
8AA-	.	8E- 8G	.	8B- 8e-	.	.	.
=27	=27	=27	=27	=27	=27	=27	=27
(8GG	.	8E- 8G	.	8B- 8e-	.	2ee-]	.
8FF)	.	8E- 8G	.	8B- 8e-	.	.	.
8EE-	.	8E- 8G	.	8B- 8e-	.	.	.
8D-	.	8E- 8G	.	8B- 8e-	.	.	.
8C	.	8A-	.	8e-	.	(8ff	.
8BB-	.	8B-	.	8d-	.	8gg)	.
=28	=28	=28	=28	=28	=28	=28	=28
8AA-	.	8C	.	8c	.	(8bb-	.
8AA-	.	8C	.	8f	.	8aa-)	.
8AA-	.	8C	.	8f	.	8gg	.
8AA-	.	8C	.	8f	.	8ff	.
8GG	.	8D	.	8f	.	8bb	.
8AA-	.	8C	.	8f	.	8ccc	.
=29	=29	=29	=29	=29	=29	=29	=29
(8AA	.	(8C	.	(8f 8ee-	.	(8ccc	.
8BB-)	.	8B-)	.	8g) 8ee-	.	8bb-)	.
8BB-	.	8B-	.	8g 8ee-	.	8aa-	.
8BB-	.	8B-	.	8g 8ee-	.	8gg	.
8BB-	.	8A-	.	8f 8dd	.	8ff	.
8BB-	.	8A-	.	8f 8dd	.	8bb-	.
=30	=30	=30	=30	=30	=30	=30	=30
(8BB	.	(8F	.	(8dd	.	(8aa-	.
8C)	.	8E-)	.	8ee-)	.	8gg)	.
8C	.	8B	.	8a-	.	8ff	.
8C	.	8c	.	8g	.	8ee-	.
8DD	.	8G	.	8g	.	8bb	.
8DD	.	8A-	.	8a-	.	8ccc	.
=31	=31	=31	=31	=31	=31	=31	=31
(8DD	.	(8A-	.	(8f	.	(8ccc	.
8EE-)	.	8G)	.	8g)	.	8bb-)	.
8AA-	.	8F	.	8c	.	8aa-	.
8AA	.	8E-	.	8cc	.	8gg	.
8BB-	.	8D	.	8f	.	8ff	.
8B-	.	8F	.	8A- 8d	.	8bb-	.
=32	=32	=32	=32	=32	=32	=32	=32
4EE-	.	4E-	.	4G 4e-	.	4e-	.
4r	.	4r	.	4r	.	4r	.
8B-	p	4r	.	4r	.	4r	.
8c	.	.	.	.	.	.	.
=33	=33	=33	=33	=33	=33	=33	=33
(8c	.	2.r	.	2.r	.	2.r	.
8B-)	.	.	.	.	.	.	.
8A-	.	.	.	.	.	.	.
8G	.	.	.	.	.	.	.
8F	.	.	.	.	.	.	.
8B-	.	.	.	.	.	.	.
=34	=34	=34	=34	=34	=34	=34	=34
4E-	.	2.r	.	2.r	.	2.r	.
4A-	.	.	.	.	.	.	.
4D	.	.	.	.	.	.	.
=35	=35	=35	=35	=35	=35	=35	=35
4G	.	(4C	p	2.r	.	(2e-	p
4C	.	4G	.	.	.	.	.
4F	.	4A-)	.	.	.	8d	.
.	.	.	.	.	.	8c)	.
=36	=36	=36	=36	=36	=36	=36	=36
4BB	.	&(4A-&)	.	4d	.	4f	.
4C	.	4G	.	4c	.	4e-	.
4r	.	8d	.	4r	.	8dd	.
.	.	8e-	.	.	.	8ee-	.
=37	=37	=37	=37	=37	=37	=37	=37
2.r	.	(8e-	.	2.r	.	(8ee-	.
.	.	8d)	.	.	.	8dd)	.
.	.	8c	.	.	.	8cc	.
.	.	8B-	.	.	.	8b-	.
.	.	8A	.	.	.	8a	.
.	.	8d	.	.	.	8dd	.
=38	=38	=38	=38	=38	=38	=38	=38
2.r	.	4G	.	8ee-	.	4g	.
.	.	.	.	8dd	.	.	.
.	.	4c	.	8cc	.	4cc	.
.	.	.	.	8b-	.	.	.
.	.	4F#	.	8a	.	4f#	.
.	.	.	.	8dd	.	.	.
=39	=39	=39	=39	=39	=39	=39	=39
(2D	.	4B-	.	4g	.	4b-	.
.	.	4D	.	4b-	.	4d	.
8C	.	(8F#	.	4d	.	(8a	.
8BB-)	.	8G)	.	.	.	8g)	.
=40	=40	=40	=40	=40	=40	=40	=40
8AA	.	8A	.	8c 8d	.	8f#	.
8A	.	4d	.	4cc	.	4ff#	.
8G	.	.	.	.	.	.	.
8GG	.	4D	.	4b-	.	4gg	.
8G	.	.	.	.	.	.	.
8GG	.	8D 8c	.	8f#	.	8aa	.
=41	=41	=41	=41	=41	=41	=41	=41
*k[b-e-]	*k[b-e-]	*k[b-e-]	*k[b-e-]	*k[b-e-]	*k[b-e-]	*k[b-e-]	*k[b-e-]
[2.GG	p	(4D 4B-	p	(2G 2g	p	2.bb-	p
.	.	4D	.	.	.	.	.
.	.	8C	.	8A	.	.	.
.	.	8D	.	8B-	.	.	.
=42	=42	=42	=42	=42	=42	=42	=42
2.GG]	.	4E-	.	4c	.	(2aa	.
.	.	4C	.	4A	.	.	.
.	.	8D	.	8B-	.	8gg	.
.	.	8E-	.	8c	.	8ff#	.
=43	=43	=43	=43	=43	=43	=43	=43
[2.GG [2.F#	.	2C)	.	4A)	.	4aa	.
.	.	.	.	4cc	.	4ee-	.
.	.	8D	.	8b-	.	8dd	.
.	.	[8E-	.	&(8a&)	.	8cc)	.
=44	=44	=44	=44	=44	=44	=44	=44
*^	*	*	*	*	*	*	*
4F#]	2GG]	.	(4E-]	.	(4a	.	(4cc	.
4G	.	.	4D	.	[2g)	.	4b-	.
(4AA	4ryy	.	8C	.	.	.	4cc	.
.	.	.	[8G	.	.	.	.	.
*v	*v	*	*	*	*	*	*	*
=45	=45	=45	=45	=45	=45	=45	=45
2.BB	.	2.G)_	.	(4g]	.	4dd	.
.	.	.	.	[2d)	.	4gg	.
.	.	.	.	.	.	[4ff	.
=46	=46	=46	=46	=46	=46	=46	=46
2C	.	2G]	.	4d]	.	4ff)]	.
.	.	.	.	(8c	.	4dd#	.
.	.	.	.	8B-	.	.	.
[4C#)	.	[4g	.	[4A)	.	&([4ee&)	.
=47	=47	=47	=47	=47	=47	=47	=47
(4.C#]	.	4g]	.	4A]	.	(8ee]	.
.	.	.	.	.	.	8a	.
.	.	(8E	.	(8e	.	4aa	.
8D	.	8F#	.	8d	.	.	.
4E)	.	4G)	.	8c#	.	4aa)	.
.	.	.	.	8cc#)	.	.	.
=48	=48	=48	=48	=48	=48	=48	=48
8F#	p	8A	p	8cc	p	(8aa	p
4d	.	4D 4A	.	4f#	.	8dd	.
.	.	.	.	.	.	8ee-	.
4d	.	4D 4B-	.	4g	.	8dd	.
.	.	.	.	.	.	8ddd	.
8d	.	8D 8c	.	8a	.	8ff#	.
=49	=49	=49	=49	=49	=49	=49	=49
*	*	*^	*	*	*	*	*
(2.d	.	4G	[2.G	.	(2.b-	.	8gg)	.
.	.	.	.	.	.	.	(8gg	.
.	.	2g	.	.	.	.	8ff#	.
.	.	.	.	.	.	.	8gg	.
.	.	.	.	.	.	.	8aa	.
.	.	.	.	.	.	.	8bb-)	.
=50	=50	=50	=50	=50	=50	=50	=50	=50
2c	.	4.f#	2G_	.	2a	.	(8ee-	.
.	.	.	.	.	.	.	8ccc	.
.	.	.	.	.	.	.	8bb	.
.	.	8e-	.	.	.	.	8ccc	.
8B-	.	8d	8G]	.	8g	.	8ddd	.
8A)	.	8c	8r	.	8f#)	.	8eee-)	.
=51	=51	=51	=51	=51	=51	=51	=51	=51
(8c	.	(2f#	[2.G	.	(4a	.	(8eee-	.
8e-	.	.	.	.	.	.	8ff#	.
8d	.	.	.	.	4e-	.	8gg	.
8c	.	.	.	.	.	.	8aa	.
8B-	.	8g	.	.	8d	.	8bb-	.
8A)	.	8a)	.	.	8c)	.	8ccc)	.
=52	=52	=52	=52	=52	=52	=52	=52	=52
(4A	.	(4f#	2.G_	.	(4c	.	(8ccc#	.
.	.	.	.	.	.	.	8ddd	.
4G)	.	[2g)	.	.	4B-)	.	8eee-	.
.	.	.	.	.	.	.	8ddd	.
(8G	.	.	.	.	(8B-	.	8eee	.
8A)	.	.	.	.	8c)	.	8fff#)	.
=53	=53	=53	=53	=53	=53	=53	=53	=53
(2B-	.	(2g]	2.G_	.	(8d	.	(8ggg	.
.	.	.	.	.	8dd	.	8ddd)	.
.	.	.	.	.	4gg	.	(8ddd	.
.	.	.	.	.	.	.	8ggg)	.
4B	.	4d)	.	.	4ff)	.	(8ggg	.
.	.	.	.	.	.	.	8gg)	.
=54	=54	=54	=54	=54	=54	=54	=54	=54
2c	.	(4f	2.G_	.	&((4ff&)	.	(8gg	.
.	.	.	.	.	.	.	8ggg)	.
.	.	4d#)	.	.	4dd#	.	(8ggg	.
.	.	.	.	.	.	.	8aa)	.
[4c#)	.	4G	.	.	[4ee)	.	(8aa	.
.	.	.	.	.	.	.	8aaa)	.
=55	=55	=55	=55	=55	=55	=55	=55	=55
(4c#]	.	(8g	2.G]	.	8ee]	.	(8aaa	.
.	.	8e	.	.	(8A	.	8aa)	.
4d	.	4d	.	.	4a)	.	8aa	.
.	.	.	.	.	.	.	8aa	.
8e	.	8c#	.	.	4a	.	(8gg	.
8E)	.	8G)	.	.	.	.	8aa)	.
*	*	*v	*v	*	*	*	*	*
=56	=56	=56	=56	=56	=56	=56	=56
8F#	.	8c 8e-	.	8A	.	8aa	.
8G	.	8B- 8d	.	8b-	.	8bb-	.
8G	.	8B- 8d	.	8d 8b-	.	8bb-	.
8C	.	8ee-	.	8aa	.	8ccc	.
8D	.	8dd	.	8gg	.	8bb-	.
8c	.	8dd	.	8ff#	.	8aa	.
=57	=57	=57	=57	=57	=57	=57	=57
(4B-	.	[2.g	p	4dd	p	4ddd	p
4e-	.	.	.	4r	.	4r	.
4d	.	.	.	(8ee-	.	(8eee-	.
.	.	.	.	8dd)	.	8ddd)	.
=58	=58	=58	=58	=58	=58	=58	=58
4A	.	(4g]	.	4dd	.	4ddd	.
4d	.	4f#	.	4r	.	4r	.
4B-)	.	4g)	.	(8ee-	.	(8eee-	.
.	.	.	.	8dd)	.	8ddd)	.
=59	=59	=59	=59	=59	=59	=59	=59
[2.GG	.	4D	.	4B- 4d	.	4ddd	.
.	.	4r	.	4r	.	(4ee-	.
.	.	(8E-	.	(8e-	.	4cc	.
.	.	8D)	.	8d)	.	.	.
=60	=60	=60	=60	=60	=60	=60	=60
(4GG]	.	4D	.	4d	.	4a	.
4FF#	.	4r	.	4r	.	4dd	.
4GG)	.	(8E-	.	(8e-	.	4b-)	.
.	.	8D)	.	8d)	.	.	.
=61	=61	=61	=61	=61	=61	=61	=61
4DD	.	[2.g	.	[2.gg	.	(4bb-	.
4r	.	.	.	.	.	4eee-	.
8EE-	.	.	.	.	.	4ccc	.
8DD	.	.	.	.	.	.	.
=62	=62	=62	=62	=62	=62	=62	=62
4DD	.	(4g]	.	(4gg]	.	4aa	.
4r	.	4f#	.	4ff#	.	4ddd	.
(8EE-	.	4g)	.	4gg)	.	4bb-)	.
8DD)	.	.	.	.	.	.	.
=63	=63	=63	=63	=63	=63	=63	=63
8E-	f	8G	f	8gg	f	4gg	f
8D	.	8f	.	8ff	.	.	.
8C	.	8e-	.	8ee-	.	[2ggg	.
8BB-	.	8d	.	8dd	.	.	.
8AA	.	8c	.	8cc	.	.	.
8GG	.	8B-	.	8b-	.	.	.
=64	=64	=64	=64	=64	=64	=64	=64
8AA	.	8c#	.	8e	.	4ggg]	.
8D	.	8c	.	8e-	.	.	.
8D	.	8C	.	8ee-	.	2fff#	.
8DD	.	8B-	.	8dd	.	.	.
8DD	.	8A	.	8dd	.	.	.
8D	.	8D 8A	.	8cc	.	.	.
=65	=65	=65	=65	=65	=65	=65	=65
4GG	f	4D 4G	f	4d 4b-	f	4ggg	f
4GG	.	4G	.	4G	.	4G	.
4GG	.	4G	.	4G	.	4G	.
=66	=66	=66	=66	=66	=66	=66	=66
4GG	.	4G	.	4G	.	4G	.
4r	.	4d	p	4r	.	4r	.
4r	.	4d	.	4r	.	4r	.
=67	=67	=67	=67	=67	=67	=67	=67
2.r	.	[2.d	.	4r	.	2.r	.
.	.	.	.	4b-	p	.	.
.	.	.	.	4b-	.	.	.
=68	=68	=68	=68	=68	=68	=68	=68
4r	.	2.d]	.	4b-	.	4r	.
4a	p	.	.	4cc	.	4fff#	p
4a	.	.	.	4cc	.	4fff#	.
=69	=69	=69	=69	=69	=69	=69	=69
4GG	f	4G 4d	f	4d 4b	f	4ggg	f
4GG	.	4G	.	4G	.	4G	.
4GG	.	4G	.	4G	.	4G	.
=70	=70	=70	=70	=70	=70	=70	=70
4GG	.	4r	.	4G	.	4G	.
4r	.	4d	p	4r	.	4r	.
4r	.	4d	.	4r	.	4r	.
=71	=71	=71	=71	=71	=71	=71	=71
4r	.	[2.d	.	4r	.	2.r	.
*clefC4	*clefG2	*	*	*	*	*	*
4g	p	.	.	4b	p	.	.
4g	.	.	.	4b	.	.	.
=72	=72	=72	=72	=72	=72	=72	=72
4g	.	2.d]	.	4b	.	4r	.
4a	.	.	.	4cc	.	4ff#	pp
4a	.	.	.	4cc	.	4ff#	.
=73	=73	=73	=73	=73	=73	=73	=73
2.r	.	2.r	.	2.r	.	2.r	.
=74	=74	=74	=74	=74	=74	=74	=74
4r	.	4r	.	4r	.	4r	.
*clefF4	*clefF4	*	*	*	*	*	*
4D	pp	4c	pp	4A	pp	4f#	pp
(16E	.	4c	.	4A	.	4f#	.
16D	.	.	.	.	.	.	.
16E	.	.	.	.	.	.	.
16D)	.	.	.	.	.	.	.
=75	=75	=75	=75	=75	=75	=75	=75
*k[f#]	*k[f#]	*k[f#]	*k[f#]	*k[f#]	*k[f#]	*k[f#]	*k[f#]
*M2/4	*M2/4	*M2/4	*M2/4	*M2/4	*M2/4	*M2/4	*M2/4
*MM48	*MM48	*MM48	*MM48	*MM48	*MM48	*MM48	*MM48
*	*	*	*	*^	*	*^	*
2GG 2D	f	2D 2B	f	2b	2G 2d	f	2gg	2G 2d 2b	f
*	*	*	*	*v	*v	*	*	*	*
*	*	*	*	*	*	*v	*v	*
=76	=76	=76	=76	=76	=76	=76	=76
8GG 8D	.	8D 8B	.	8G 8d 8b	.	8G 8d 8b 8gg	.
4AA	.	4D 4c	.	4d 4f#	.	4dd	.
8AA	.	8D 8c	.	8d 8f#	.	8dd	.
=77	=77	=77	=77	=77	=77	=77	=77
*	*	*	*	*^	*	*^	*
2GG 2D	.	2D 2B	.	2gg	2G 2d 2b	.	2bb	2G 2d 2dd	.
*	*	*	*	*v	*v	*	*	*	*
*	*	*	*	*	*	*v	*v	*
=78	=78	=78	=78	=78	=78	=78	=78
8GG 8D	.	8D 8B	.	8G 8d 8b 8gg	.	8G 8d 8dd 8bb	.
4C	.	4D 4d	.	4ff#	.	4aa	.
8C	.	8D 8d	.	8ff#	.	8aa	.
=79	=79	=79	=79	=79	=79	=79	=79
4.BB	.	4.G 4.d	.	4.b 4.gg	.	4.ddd	.
8E	.	8G 8g	.	8gg	.	8bb	.
=80	=80	=80	=80	=80	=80	=80	=80
4.CC 4.C	.	4.C 4.G	.	8g 8ee	.	8.eee	.
.	.	.	.	4G 4e	.	.	.
.	.	.	.	.	.	32dd#	.
.	.	.	.	.	.	32ee	.
.	.	.	.	.	.	(48dd#	p
.	.	.	.	.	.	48ee	.
.	.	.	.	.	.	48dd#	.
.	.	.	.	.	.	48ee	.
.	.	.	.	.	.	48dd#	.
.	.	.	.	.	.	48ee)	.
8CC 8C	p	[8C [8G	p	[8G [8e	p	(64dd#	.
.	.	.	.	.	.	64ee	.
.	.	.	.	.	.	64dd#	.
.	.	.	.	.	.	64ee	.
.	.	.	.	.	.	64dd#	.
.	.	.	.	.	.	64ee	.
.	.	.	.	.	.	64ff#	.
.	.	.	.	.	.	64ee)	.
=81	=81	=81	=81	=81	=81	=81	=81
*M3/4	*M3/4	*M3/4	*M3/4	*M3/4	*M3/4	*M3/4	*M3/4
*MM154	*MM154	*MM154	*MM154	*MM154	*MM154	*MM154	*MM154
(2.c	.	4C] 4G]	.	4G] 4e]	.	(4ee	.
.	.	(4C	.	(8f#	.	4aa	.
.	.	.	.	8g	.	.	.
.	.	4c	.	[4a)	.	4ff#	.
=82	=82	=82	=82	=82	=82	=82	=82
2.B	.	4d	.	(4a]	.	4dd	.
.	.	8e	.	4d	.	4gg	.
.	.	8f#	.	.	.	.	.
.	.	[4G)	.	[4g)	.	4ee)	.
=83	=83	=83	=83	=83	=83	=83	=83
2.A	.	(4G]	.	(8g]	.	(8dd	.
.	.	.	.	8e	.	8cc)	.
.	.	4c	.	4a	.	(8cc	.
.	.	.	.	.	.	8b	.
.	.	4A)	.	[4f#)	.	4cc)	.
=84	=84	=84	=84	=84	=84	=84	=84
2.B	.	(4d	.	(4f#]	.	(2dd	.
.	.	[2G)	.	4g	.	.	.
.	.	.	.	4f	.	4dd#)	.
=85	=85	=85	=85	=85	=85	=85	=85
2.c	.	(4G]	.	4e	.	4ee	.
.	.	[2C)	.	4A	.	4aa	.
.	.	.	.	[4a	.	&([4ff#&)	.
=86	=86	=86	=86	=86	=86	=86	=86
2.d	.	(4C]	.	4a]	.	(4ff#]	.
.	.	2D	.	4B	.	4bb	.
.	.	.	.	4b)	.	[4gg)	.
=87	=87	=87	=87	=87	=87	=87	=87
2e	.	4E	.	4cc	.	(4gg]	.
.	.	4e)	.	&(4c&)	.	4ccc	.
[4f#	.	(8F#	.	[4d [4cc	.	[4aa)	.
.	.	8f#)	.	.	.	.	.
=88	=88	=88	=88	=88	=88	=88	=88
4f#]	.	(8d	.	(8d] 8cc]	.	(4aa]	.
.	.	8c	.	8f#	.	.	.
4g)	.	8B	.	8g	.	8bb	.
.	.	8A	.	8a	.	8ccc	.
(4GG	.	8G	.	8b	.	8ddd	.
.	.	8F)	.	8B)	.	8ddd#)	.
=89	=89	=89	=89	=89	=89	=89	=89
*^	*	*	*	*	*	*^	*
4CC)	2.CC	.	(4E	.	(4e	.	2.eee	4r	.
([2C	.	.	4A	.	4a	.	.	4r	.
.	.	.	[4F#	.	[4f#	.	.	4ee	.
*v	*v	*	*	*	*	*	*	*	*
=90	=90	=90	=90	=90	=90	=90	=90	=90
4C]	.	4F#]	.	4f#]	.	2.ddd	4r	.
[2BB	.	4B	.	4b	.	.	4r	.
.	.	[4G	.	[4g	.	.	4dd	.
=91	=91	=91	=91	=91	=91	=91	=91	=91
4BB]	.	4G]	.	4g]	.	2.ccc	4r	.
[2AA	.	4c	.	4cc	.	.	4r	.
.	.	[4A	.	[4a	.	.	4cc	.
=92	=92	=92	=92	=92	=92	=92	=92	=92
4AA]	.	4A]	.	4a]	.	2.bb	4r	.
4GG	f	4d	f	4dd	f	.	4r	.
4D)	.	4B)	.	4b)	.	.	4b	f
*	*	*	*	*	*	*v	*v	*
=93	=93	=93	=93	=93	=93	=93	=93
(4FF	f	4G	f	4g	f	2b 2bb	f
4D	.	(8G	.	(8g	.	.	.
.	.	8A	.	8a	.	.	.
4GG)	.	4B)	.	4b)	.	[4ddd	.
=94	=94	=94	=94	=94	=94	=94	=94
(4EE	.	4r	.	4r	.	(4ddd]	.
4GG	.	(8e	.	(8ee	.	4ccc)	.
.	.	8f#	.	8ff#	.	.	.
4EE-)	.	4g)	.	4gg)	.	(8ccc	.
.	.	.	.	.	.	8aa)	.
=95	=95	=95	=95	=95	=95	=95	=95
(4DD	p	4r	.	4r	.	(4aa	p
4BB	.	(8B	p	(8b	p	4gg	.
.	.	8c	.	8cc	.	.	.
4GG)	.	4e)	.	4dd)	.	4bb)	.
=96	=96	=96	=96	=96	=96	=96	=96
(4DD	.	4r	.	4r	.	(4ee-	.
4C	.	(8A	.	(8a	.	4dd	.
.	.	8B	.	8b	.	.	.
4AA	.	8c	.	8cc	.	8ee	.
.	.	8d)	.	8dd)	.	8ff#)	.
=97	=97	=97	=97	=97	=97	=97	=97
4GG)	.	4B	.	4b	.	(4gg	.
4r	.	4r	.	4r	.	4ccc	.
4r	.	[4c	.	4r	.	[4aa	.
=98	=98	=98	=98	=98	=98	=98	=98
2.r	.	(4c]	.	[2.g	.	4aa]	.
.	.	4B	.	.	.	4ddd	.
.	.	4d)	.	.	.	4bb)	.
=99	=99	=99	=99	=99	=99	=99	=99
4r	.	(2.G	.	4g]	.	2.r	.
4r	.	.	.	4cc	.	.	.
[4c	p	.	.	[4a	.	.	.
=100	=100	=100	=100	=100	=100	=100	=100
(4c]	.	2.F	.	(4a]	.	2.r	.
4B	.	.	.	4dd	.	.	.
4d)	.	.	.	[4b)	.	.	.
=101	=101	=101	=101	=101	=101	=101	=101
(2.g	.	2.E-	.	(4b]	.	2.r	.
.	.	.	.	4ee-	.	.	.
.	.	.	.	[4cc)	.	.	.
=102	=102	=102	=102	=102	=102	=102	=102
2.f)	.	2.D)	.	(4cc]	.	[2.gg	p
.	.	.	.	4b	.	.	.
.	.	.	.	8cc	.	.	.
.	.	.	.	8dd)	.	.	.
=103	=103	=103	=103	=103	=103	=103	=103
(2.GG	.	(2.C	.	2.ee-	.	4gg]	.
.	.	.	.	.	.	4ccc	.
.	.	.	.	.	.	[4aa	.
=104	=104	=104	=104	=104	=104	=104	=104
2.FF	.	2.F 2.G	.	2.dd	.	(4aa]	.
.	.	.	.	.	.	4ddd	.
.	.	.	.	.	.	[4bb)	.
=105	=105	=105	=105	=105	=105	=105	=105
2.EE-)	.	4G)	.	2.gg	.	(4bb]	.
.	.	4c	.	.	.	4eee-	.
.	.	&([4A&)	.	.	.	[4ccc)	.
=106	=106	=106	=106	=106	=106	=106	=106
2.DD	.	(4A]	.	[2.ff	.	(4ccc]	.
.	.	4G	.	.	.	4bb	.
.	.	8A	.	.	.	8ccc	.
.	.	8B)	.	.	.	8ddd)	.
=107	=107	=107	=107	=107	=107	=107	=107
(4CC	f	2.C 2.c	f	4ff]	f	2.eee-	f
4G	.	.	.	(8ee-	.	.	.
.	.	.	.	8ff	.	.	.
4C)	.	.	.	4gg)	.	.	.
=108	=108	=108	=108	=108	=108	=108	=108
(4BB-	.	2.C 2.c	f	4r	.	2.eee-	f
4G	.	.	.	(8cc	f	.	.
.	.	.	.	8dd	.	.	.
4C)	.	.	.	4ee-)	.	.	.
=109	=109	=109	=109	=109	=109	=109	=109
(4AA	.	[2.C [2.c	f	4r	.	2eee-	f
4F	.	.	.	(8cc	f	.	.
.	.	.	.	8dd	.	.	.
4C)	.	.	.	4ee)	.	[4ggg	.
=110	=110	=110	=110	=110	=110	=110	=110
(4AA-	.	2.C] 2.c]	.	4r	.	(4ggg]	.
8F	.	.	.	(8cc	.	4fff)	.
8C	.	.	.	8ee	.	.	.
4AA-)	.	.	.	[4ff)	.	(8fff	.
.	.	.	.	.	.	8ddd)	.
=111	=111	=111	=111	=111	=111	=111	=111
(4GG	p	(4C	p	(4ff]	p	(4ddd	p
4E-	.	[2g)	.	8ee-	.	4ccc	.
.	.	.	.	8ff	.	.	.
4C)	.	.	.	[4gg)	.	[4eee-)	.
=112	=112	=112	=112	=112	=112	=112	=112
(4GG	.	8g]	.	8gg]	.	8eee-]	.
.	.	(8c	.	(8e-	.	(8G	.
[2CC)	.	8B	.	8f	.	4a-	.
.	.	8c	.	8e-	.	.	.
.	.	8E-	.	8c	.	8g)	.
.	.	8D	.	8f	.	8b	.
=113	=113	=113	=113	=113	=113	=113	=113
(4CC]	pp	8C)	pp	4e-)	pp	4cc	pp
.	.	(8G	.	.	.	.	.
4FF	.	4a-	.	4r	.	4r	.
[4DD	.	8g	.	4r	.	4r	.
.	.	8b	.	.	.	.	.
=114	=114	=114	=114	=114	=114	=114	=114
4DD]	.	4cc)	.	([2.c	.	2.r	.
4GG	.	4r	.	.	.	.	.
4EE-	.	4r	.	.	.	.	.
=115	=115	=115	=115	=115	=115	=115	=115
8CC)	.	4r	.	4c]	.	2.r	.
(8C	.	.	.	.	.	.	.
4A-	.	(4c	.	4f	.	.	.
8G	.	4f)	.	[4d	.	.	.
8B)	.	.	.	.	.	.	.
=116	=116	=116	=116	=116	=116	=116	=116
4c	.	(4F	.	4d]	.	(2.cc	.
4r	.	4E-	.	4g	.	.	.
4r	.	4G)	.	[4e-	.	.	.
=117	=117	=117	=117	=117	=117	=117	=117
*k[b-e-a-]	*k[b-e-a-]	*k[b-e-a-]	*k[b-e-a-]	*k[b-e-a-]	*k[b-e-a-]	*k[b-e-a-]	*k[b-e-a-]
2.r	.	(2.c	.	4e-]	.	2.ee-	.
.	.	.	.	4a-	.	.	.
.	.	.	.	[4f	.	.	.
=118	=118	=118	=118	=118	=118	=118	=118
[2.EE-	.	2.B-	.	4f]	.	2.dd-	.
.	.	.	.	4b-	.	.	.
.	.	.	.	[4g)	.	.	.
=119	=119	=119	=119	=119	=119	=119	=119
(4EE-]	.	2.A-	.	(4g]	.	2.cc	.
4AA-	.	.	.	4c	.	.	.
4FF	.	.	.	[4f)	.	.	.
=120	=120	=120	=120	=120	=120	=120	=120
4DD-	.	2G	.	(4f]	.	2.b-)	.
4GG	.	.	.	4B-	.	.	.
4EE-)	.	4g)	.	4e-)	.	.	.
=121	=121	=121	=121	=121	=121	=121	=121
8CC	ff	8g-	ff	8e-	ff	4a	ff
8C	.	8c 8e-	.	8A 8g-	.	.	.
8E-	.	8c 8e-	.	8A 8g-	.	4gg-	.
8G-	.	8c 8e-	.	8A 8g-	.	.	.
8A	.	8c 8e-	.	8A 8g-	.	4gg-	.
8c	.	8c 8e-	.	8A 8g-	.	.	.
=122	=122	=122	=122	=122	=122	=122	=122
4e-	.	8c 8e-	.	4A 4g-	.	4.gg-	.
.	.	8e-	.	.	.	.	.
(4GG-	.	8c	.	4gg-	.	.	.
.	.	8A	.	.	.	8A	.
4EE-)	.	8G-	.	4gg-	.	8c	.
.	.	8E-	.	.	.	8e-	.
=123	=123	=123	=123	=123	=123	=123	=123
4CC	.	4e-	.	8gg-	.	8g-	.
.	.	.	.	8ee-	.	8a	.
(4GG-	.	4g-	.	8cc	.	8cc	.
.	.	.	.	8a	.	8ee-	.
4EE-)	.	4g-	.	8g-	.	8gg-	.
.	.	.	.	8e-	.	8aa	.
=124	=124	=124	=124	=124	=124	=124	=124
4CC	.	4g-	.	8ee-	.	8ccc	.
.	.	.	.	8cc	.	8eee-	.
(4GG-	.	4G-	.	8a	.	8eee-	.
.	.	.	.	8a 8cc	.	8ggg-	.
4EE-)	.	4G-	.	8a 8cc	.	8ggg-	.
.	.	.	.	8c	.	8a	.
=125	=125	=125	=125	=125	=125	=125	=125
8DD-	.	8F	.	8d- 8f	.	4b-	.
8FF	.	8D- 8B-	.	8d- 8f	.	.	.
8BB-	.	8D- 8B-	.	8d- 8f	.	4ff	.
8D-	.	8D- 8B-	.	8d- 8f	.	.	.
8F	.	8D- 8B-	.	8d- 8f	.	4ff	.
8B-	.	8D- 8B-	.	8d- 8f	.	.	.
=126	=126	=126	=126	=126	=126	=126	=126
4DD-	.	8b-	.	4d- 4f	.	4.ff	.
.	.	8f	.	.	.	.	.
(4BB-	.	8d-	.	4ff	.	.	.
.	.	8B-	.	.	.	8B-	.
4FF)	.	8F	.	4ff	.	8d-	.
.	.	8D-	.	.	.	8f	.
=127	=127	=127	=127	=127	=127	=127	=127
4DD-	.	4f	.	8ff	.	8b-	.
.	.	.	.	8dd-	.	8dd-	.
(4BB-	.	4f	.	8b-	.	8ff	.
.	.	.	.	8f	.	8bb-	.
4FF)	.	4f	.	8d-	.	8ddd-	.
.	.	.	.	8B-	.	8fff	.
=128	=128	=128	=128	=128	=128	=128	=128
4DD-	.	4f	.	8ff	.	8fff	.
.	.	.	.	8dd-	.	8bbb-	.
(4BB-	.	4F	.	8b-	.	4bbb-	.
.	.	.	.	8f	.	.	.
4FF)	.	4B-	.	8d-	.	4b-	.
.	.	.	.	8B-	.	.	.
=129	=129	=129	=129	=129	=129	=129	=129
8DD-	.	8F 8A-	.	8B 8a-	.	4b	.
8FF	.	8F 8A-	.	8B 8a-	.	.	.
8AA-	.	8F 8A-	.	8B 8a-	.	4ff	.
8D-	.	8F 8A-	.	8B 8a-	.	.	.
8F	.	8F 8A-	.	8B 8a-	.	4ff	.
8A-	.	8F 8A-	.	8B 8a-	.	.	.
=130	=130	=130	=130	=130	=130	=130	=130
4DD-	.	8a-	.	4B 4a-	.	4.ff	.
.	.	8f	.	.	.	.	.
(4AA-	.	8B	.	4aa-	.	.	.
.	.	8A-	.	.	.	8f	.
4FF)	.	8F	.	4aa-	.	8a-	.
.	.	8D-	.	.	.	8b	.
=131	=131	=131	=131	=131	=131	=131	=131
4DD-	.	4F 4A-	.	8aa-	.	8ff	.
.	.	.	.	8ff	.	8aa-	.
(4AA-	.	4a-	.	8ff	.	8bb	.
.	.	.	.	8b	.	8fff	.
4FF)	.	4a-	.	8a-	.	8fff	.
.	.	.	.	8f	.	8ggg	.
=132	=132	=132	=132	=132	=132	=132	=132
4DD-	.	4a-	.	8ff	.	8ggg	.
.	.	.	.	8b	.	8aaa-	.
(4AA-	.	4A-	.	8f 8b	.	8aaa-	.
.	.	.	.	8f 8b	.	8ff	.
4FF)	.	4A-	.	8f 8b	.	4ff	.
.	.	.	.	8f 8b	.	.	.
=133	=133	=133	=133	=133	=133	=133	=133
4CC	.	4C	.	4c	.	8ccc	.
.	.	.	.	.	.	8ee	.
(4C	.	(4c	.	(4cc	.	8ee	.
.	.	.	.	.	.	8c	.
4GG)	.	4G)	.	4g)	.	4cc	.
=134	=134	=134	=134	=134	=134	=134	=134
4CC	.	4C	.	4c	.	8r	.
.	.	.	.	.	.	8eee	.
(4G	.	(4g	.	(4gg	.	8eee	.
.	.	.	.	.	.	8cc	.
4E)	.	4e)	.	4ee)	.	4ccc	.
=135	=135	=135	=135	=135	=135	=135	=135
*k[]	*k[]	*k[]	*k[]	*k[]	*k[]	*k[]	*k[]
*M2/4	*M2/4	*M2/4	*M2/4	*M2/4	*M2/4	*M2/4	*M2/4
*MM48	*MM48	*MM48	*MM48	*MM48	*MM48	*MM48	*MM48
2CC 2GG	ff	2C 2G	.	2cc 2ee	ff	2cc 2ccc	ff
=136	=136	=136	=136	=136	=136	=136	=136
8CC 8GG	.	8C 8G	.	8G 8e 8cc 8ee	.	8c 8g 8ee 8ccc	.
4DD 4GG	.	4D 4G	.	4f 4b	.	4gg	.
8DD 8GG	.	8D 8G	.	8f 8b	.	8gg	.
=137	=137	=137	=137	=137	=137	=137	=137
2CC 2GG	.	2C 2G	.	2e 2ee	.	2eee	.
=138	=138	=138	=138	=138	=138	=138	=138
8CC 8GG	.	8C 8G	.	8cc 8ee	.	8eee	.
4FF 4GG	.	4D 4B	.	4b 4gg	.	4ddd	.
8FF 8GG	.	8D 8B	.	8b 8gg	.	8ddd	.
=139	=139	=139	=139	=139	=139	=139	=139
*M3/4	*M3/4	*M3/4	*M3/4	*M3/4	*M3/4	*M3/4	*M3/4
*MM154	*MM154	*MM154	*MM154	*MM154	*MM154	*MM154	*MM154
[2.EE [2.GG	f	[2.C [2.G	.	[2.cc [2.gg	f	[2.ggg	f
=140	=140	=140	=140	=140	=140	=140	=140
2EE] 2GG]	.	2.C_ 2.G_	.	2cc] 2gg]	.	2ggg]	.
[4c	p	.	.	[4e	p	[4gg	p
=141	=141	=141	=141	=141	=141	=141	=141
4.c]	.	4C] 4G]	p	4.e]	.	(4gg]	.
.	.	4r	.	.	.	4ccc	.
8c	.	.	.	8e	.	.	.
8B	.	4r	.	8d	.	4aa)	.
8c	.	.	.	8e	.	.	.
*clefC4	*clefG2	*	*	*	*	*	*
=142	=142	=142	=142	=142	=142	=142	=142
8d	.	2.r	.	8f	.	(8gg	.
8e	.	.	.	8g	.	8ff)	.
8f	.	.	.	8a	.	(8ff	.
8g	.	.	.	8b	.	8ee	.
8a	.	.	.	8cc	.	4ff)	.
8b	.	.	.	8dd	.	.	.
=143	=143	=143	=143	=143	=143	=143	=143
4cc	.	(4g	.	8ee	.	4ee	.
.	.	.	.	8e	.	.	.
*clefF4	*clefF4	*	*	*	*	*	*
8r	.	4cc	.	8e	.	8r	.
8C	.	.	.	8e	.	8ee	.
8BB	.	4a)	.	8f	.	8dd	.
8C	.	.	.	8f	.	8ee	.
=144	=144	=144	=144	=144	=144	=144	=144
8D	.	(8g	.	8e	.	8ff	.
8E	.	8f)	.	8d	.	8gg	.
8F	.	(8f	.	8d	.	8aa	.
8G	.	8e	.	8c	.	8bb	.
8A	.	4f)	.	8c	.	12bb	.
.	.	.	.	.	.	12ccc	.
8B	.	.	.	8gg	.	.	.
.	.	.	.	.	.	12ddd	.
=145	=145	=145	=145	=145	=145	=145	=145
8c	.	4e	.	(4gg	.	4eee	.
8c	.	.	.	.	.	.	.
8c	.	8r	.	4ccc	.	8r	.
8c	.	8e	.	.	.	8ccc	.
8c	.	8d	.	4aa	.	8bb	.
8c	.	8e	.	.	.	8ccc	.
=146	=146	=146	=146	=146	=146	=146	=146
8c	.	8f	.	8gg	.	8ddd	.
8B	.	8g	.	8ff)	.	8eee	.
8A	.	8a	.	(8ff	.	8fff	.
8G	.	8b	.	8ee	.	8ggg	.
8F	.	8cc#	.	4ff)	.	8aaa	.
8D	.	8dd	.	.	.	8bbb	.
=147	=147	=147	=147	=147	=147	=147	=147
4C	f	4G 4g	.	4ee	f	4cccc	f
(4D-	.	(4d-	.	(4dd-	.	8ee	.
.	.	.	.	.	.	8dd	.
4BB-)	.	4B-)	.	4b-)	.	4dd)	.
=148	=148	=148	=148	=148	=148	=148	=148
4GG	p	4G	p	4g	p	4r	.
(4g	.	(4B-	.	(4d-	.	8e	p
.	.	.	.	.	.	8d	.
4e)	.	4G)	.	4B-)	.	4e)	.
=149	=149	=149	=149	=149	=149	=149	=149
4e	.	4B-	.	4d-	.	4r	.
(4D-	.	(4G	.	(4g	.	8ee	.
.	.	.	.	.	.	8dd	.
4BB-)	.	4d-)	.	4dd-)	.	4ee)	.
=150	=150	=150	=150	=150	=150	=150	=150
4AA-	.	4c	.	4cc	.	4r	.
(4a-	.	(4cc	.	(4A-	.	8ff	.
.	.	.	.	.	.	8ee	.
4f)	.	4a-)	.	4c)	.	4ff)	.
=151	=151	=151	=151	=151	=151	=151	=151
4FF	f	4F	.	4f	f	4r	.
(4C	.	(4c	.	(4cc	.	8ff	f
.	.	.	.	.	.	8ee	.
4AA-)	.	4A-)	.	4a-)	.	4ff)	.
=152	=152	=152	=152	=152	=152	=152	=152
4FF	p	4F	p	4f	p	4r	.
(4c	.	(4a-	.	(4cc	.	8f	p
.	.	.	.	.	.	8e	.
4A-)	.	4f)	.	4ff)	.	4f)	.
=153	=153	=153	=153	=153	=153	=153	=153
4F	.	4c	.	4aa-	.	4r	.
(4AA-	.	(4C	.	(4ccc	.	8ff	.
.	.	.	.	.	.	8ee	.
4FF)	.	4A-)	.	4aa-)	.	4ff)	.
=154	=154	=154	=154	=154	=154	=154	=154
4EE	.	4D- 4B-	.	4gg	.	4r	.
(4d-	.	(4b-	.	(4e	.	8gg	.
.	.	.	.	.	.	8ff	.
4B-)	.	4g)	.	4d-)	.	4gg)	.
=155	=155	=155	=155	=155	=155	=155	=155
4EE-	f	4G 4g	f	4G	.	4r	.
(4D-	.	(4d-	.	(4dd-	.	8gg	f
.	.	.	.	.	.	8ff	.
4BB-)	.	4B-)	.	4b-)	.	4gg)	.
=156	=156	=156	=156	=156	=156	=156	=156
4EE-	p	4G	p	4g	p	4r	.
(4d-	.	(4B-	.	(4ff-	.	8g	p
.	.	.	.	.	.	8f	.
4e-)	.	4d-)	.	4ee-)	.	4g)	.
=157	=157	=157	=157	=157	=157	=157	=157
4f-	.	4g	.	4dd-	.	4r	.
4r	.	(4D-	.	(4f-	.	8gg	.
.	.	.	.	.	.	8ff	.
4r	.	4E-)	.	4d-)	.	4gg)	.
=158	=158	=158	=158	=158	=158	=158	=158
4r	.	4F-	.	4B-	.	4r	.
(4E-	.	(4C	.	(4c	.	8aa-	.
.	.	.	.	.	.	8gg	.
4C)	.	4E-)	.	4A-)	.	4aa-)	.
=159	=159	=159	=159	=159	=159	=159	=159
*k[b-e-a-]	*k[b-e-a-]	*k[b-e-a-]	*k[b-e-a-]	*k[b-e-a-]	*k[b-e-a-]	*k[b-e-a-]	*k[b-e-a-]
4AA-	f	4E-	.	4c	f	4r	.
(4E-	.	(4e-	.	(4ee-	.	8aa-	f
.	.	.	.	.	.	8gg	.
4C)	.	4c)	.	4cc)	.	4aa-)	.
=160	=160	=160	=160	=160	=160	=160	=160
4AA-	p	4A-	p	4a-	p	4r	.
(4e-	.	(4c	.	(4a-	.	8a-	p
.	.	.	.	.	.	8g	.
4c)	.	4A-)	.	4e-)	.	4a-)	.
=161	=161	=161	=161	=161	=161	=161	=161
4A-	.	4E-	.	4c	.	4r	.
(4C	.	(4c	.	(4e-	.	8aa-	.
.	.	.	.	.	.	8gg	.
4AA-)	.	4G)	.	4cc)	.	4aa-)	.
=162	=162	=162	=162	=162	=162	=162	=162
4GG	.	4E	.	4dd-	.	4r	.
(4GG	.	(4B-	.	(4G	.	8bb-	.
.	.	.	.	.	.	8aa-	.
4DD-)	.	4F)	.	4B-)	.	4bb-)	.
=163	=163	=163	=163	=163	=163	=163	=163
4CC	f	4E	f	4e	.	4r	.
(4GG	.	(4B-	.	(4b-	.	8bb-	f
.	.	.	.	.	.	8aa-	.
4DD-)	.	4F)	.	4f)	.	4bb-)	.
=164	=164	=164	=164	=164	=164	=164	=164
4CC	p	4E	.	4e	p	4r	.
(4d-	.	(4e	.	(4g	.	8b-	p
.	.	.	.	.	.	8a-	.
4B-)	.	4g)	.	4b-)	.	4b-)	.
=165	=165	=165	=165	=165	=165	=165	=165
4G	.	4B-	.	4e 4dd-	.	4r	.
(4GG	.	(4B-	.	(4b-	.	8bb-	.
.	.	.	.	.	.	8aa-	.
4EE)	.	4G)	.	4g)	.	4bb-)	.
=166	=166	=166	=166	=166	=166	=166	=166
4CC	.	4E	.	4e	.	4r	.
*	*	*^	*	*	*	*	*
(4AA-	.	(4C	[2C	.	(4cc	.	8ccc	.
.	.	.	.	.	.	.	8bb	.
8FF	.	8A-	.	.	8a-	.	4ccc)	.
8GG	.	8B-	.	.	8g	.	.	.
*	*	*v	*v	*	*	*	*	*
=167	=167	=167	=167	=167	=167	=167	=167
2.AA-	p	8C)] 8c	.	2f	p	(4ccc	p
.	.	8C	.	.	.	.	.
.	.	8D	.	.	.	4fff	.
.	.	8E-	.	.	.	.	.
.	.	[4F	.	[4b-)	.	4ddd	.
=168	=168	=168	=168	=168	=168	=168	=168
2GG	.	8F]	.	4b-]	.	4bb-	.
.	.	(8D	.	.	.	.	.
.	.	8E-	.	(4e-	.	4eee-	.
.	.	8F	.	.	.	.	.
4AA-	.	4E-	.	4cc	.	4ccc)	.
=169	=169	=169	=169	=169	=169	=169	=169
4BB-	.	4D	.	2f	.	(8bb-	.
.	.	.	.	.	.	8aa-)	.
4D	.	[2B-)	.	.	.	(8aa-	.
.	.	.	.	.	.	8gg	.
[4F)	.	.	.	[4a-)	.	4aa-)	.
=170	=170	=170	=170	=170	=170	=170	=170
(4F]	.	(4B-]	.	(4a-]	.	(2bb-	.
8E-	.	8B-	.	8g	.	.	.
8F	.	8A-	.	8f	.	.	.
8G	.	8G	.	8e-	.	4bb	.
8GG)	.	8F	.	8d	.	.	.
=171	=171	=171	=171	=171	=171	=171	=171
(4AA-	.	8E-	.	4c	.	8ccc	.
.	.	8D	.	.	.	8b	.
[2A-)	.	8C	.	4f	.	8cc	.
.	.	8c	.	.	.	8ee	.
.	.	8F)	.	4c-) 4d	.	8ff	.
.	.	[8f	.	.	.	8dd)	.
=172	=172	=172	=172	=172	=172	=172	=172
(4A-]	.	(8f]	.	(4B- 4d	.	(8cc	.
.	.	8F	.	.	.	8b-)	.
[2G)	.	4B-	.	4e-	.	(8b-	.
.	.	.	.	.	.	8dd	.
.	.	[4E-)	.	4c)	.	8ee-	.
.	.	.	.	.	.	8cc)	.
=173	=173	=173	=173	=173	=173	=173	=173
(4G]	.	(8E-]	.	(8B-	.	(8b-	.
.	.	8C	.	8A-)	.	8aa-)	.
4F	.	2D)	.	(8A-	.	(8aa-	.
.	.	.	.	8G)	.	8ccc	.
[4BB-)	.	.	.	4A-	.	8bb-	.
.	.	.	.	.	.	8aa-)	.
=174	=174	=174	=174	=174	=174	=174	=174
8BB-]	.	(8E-	.	4G	.	(8aa-	.
(8E-	.	8G	.	.	.	8gg	.
8F	.	8A-	.	4r	.	8dd	.
8G	.	8B-	.	.	.	8ee-	.
8A-	.	8c	.	4r	.	8ff	.
8B-)	.	8d)	.	.	.	8gg)	.
=175	=175	=175	=175	=175	=175	=175	=175
(8B	.	(8d	.	4r	.	(8g	.
8c)	.	8e-)	.	.	.	8a-)	.
(8c	.	4r	.	(4.gg	.	(4A-	.
8e	.	.	.	.	.	.	.
8f	.	4r	.	.	.	[4a-)	.
8d)	.	.	.	8ff)	.	.	.
=176	=176	=176	=176	=176	=176	=176	=176
(8c	.	(8c	.	4r	.	(8a-]	.
8B-)	.	8d)	.	.	.	8g)	.
(8B-	.	4r	.	(4.ff	.	(4G	.
8d	.	.	.	.	.	.	.
8e-	.	4r	.	.	.	[4g)	.
8c)	.	.	.	8ee-)	.	.	.
=177	=177	=177	=177	=177	=177	=177	=177
*	*	*^	*	*	*	*	*
(8B-	.	4e-	(8B-	.	4r	.	(8g]	.
8A-)	.	.	8c)	.	.	.	8f)	.
(8A-	.	4.e-	4.c	.	4.ee-	.	[2f	.
8G	.	.	.	.	.	.	.	.
8A-	.	.	.	.	.	.	.	.
*	*	*v	*v	*	*	*	*	*
8A	.	(8c	.	(8ee-	.	.	.
=178	=178	=178	=178	=178	=178	=178	=178
8B-	.	8B-	.	8dd	.	8f]	.
8c	.	8A-	.	8ee-	.	(4f	.
*clefC4	*clefG2	*	*	*	*	*	*
8d	.	8G	.	8ff	.	.	.
8e-	.	8F	.	8gg	.	8g	.
8f	.	8E-	.	8aa-	.	8a-	.
8g)	.	8D-)	.	8bb-)	.	8b-)	.
=179	=179	=179	=179	=179	=179	=179	=179
(2.a-	.	(8C	.	4ccc	.	(2cc	.
.	.	8E	.	.	.	.	.
.	.	8F	.	4r	.	.	.
.	.	8E	.	.	.	.	.
.	.	8F	.	8r	.	4b-)	.
.	.	8D	.	(8f	.	.	.
=180	=180	=180	=180	=180	=180	=180	=180
2.g)	.	8E-	.	8B-	.	(4b-	.
.	.	8D	.	8d	.	.	.
.	.	8E-	.	8e-	.	4gg	.
.	.	8D	.	8d	.	.	.
.	.	8E-	.	8e-	.	4ee-)	.
.	.	8C)	.	8c)	.	.	.
=181	=181	=181	=181	=181	=181	=181	=181
(8g	.	4B-	.	(8B-	.	(8ee-	.
8f)	.	.	.	8a-)	.	8dd)	.
(8f	.	4B-	.	(8a-	.	(8dd	.
8e-)	.	.	.	8g	.	8ee-	.
4d	.	4B-	.	8f	.	[4ff)	.
.	.	.	.	8a-)	.	.	.
=182	=182	=182	=182	=182	=182	=182	=182
4e-	.	8E- 8B-	.	(8a-	.	(8ff]	.
.	.	8E- 8B-	.	8g)	.	8ee-)	.
*clefF4	*clefF4	*	*	*	*	*	*
4EE- 4GG	.	8E- 8B-	.	8g	.	8B-	.
.	.	8E- 8G	.	8B- 8e-	.	8b-	.
[4e-	f	8E- 8G	f	8B- 8e-	.	8b-	f
.	.	8E- 8G	.	8B- 8e-	.	8b-	.
=183	=183	=183	=183	=183	=183	=183	=183
2e-]	.	8E- 8G	.	8B- 8e-	.	8b-	.
.	.	8E- 8G	.	8B- 8e-	.	8b-	.
.	.	8E- 8G	.	8B- 8e-	.	8b-	.
.	.	8E- 8G	.	8B- 8e-	.	8b-	.
*clefC4	*clefG2	*	*	*	*	*	*
(8f	.	8E- 8G	.	8B- 8e-	.	8b-	.
8g)	.	8E- 8G	.	8B-	.	8e-	.
=184	=184	=184	=184	=184	=184	=184	=184
(2b-	.	8F 8A-	.	8B-	.	8A- 8e-	.
.	.	8F 8A-	.	8B-	.	8A- 8d	.
.	.	8F 8A-	.	8B-	.	8A- 8d	.
.	.	8F 8A-	.	8B-	.	8A- 8d	.
8a-	.	8F 8A-	.	8B-	.	8A- 8d	.
8g)	.	8F 8A-	.	8B-	.	8A- 8d	.
=185	=185	=185	=185	=185	=185	=185	=185
(8g	.	8D	.	8B-	.	8A- 8f	.
8f)	.	8D	.	8B-	.	8A- 8f	.
(8e-	.	8D	.	8B-	.	8A- 8f	.
8d	.	8D	.	8B-	.	8A- 8f	.
8c	.	8D	.	8B-	.	8A- 8f	.
8B-)	.	8D	.	8B-	.	8A- 8f	.
*clefF4	*clefF4	*	*	*	*	*	*
=186	=186	=186	=186	=186	=186	=186	=186
8A-	.	8E-	.	8B-	.	8G 8g	.
8G	.	8E- 8G	.	8B- 8e-	.	8b-	.
8F	.	8E- 8G	.	8B- 8e-	.	8cc	.
8E-	.	8E- 8G	.	8B- 8e-	.	8dd	.
8D-	.	8E- 8G	.	8B- 8e-	.	[4ee-	f
8C	.	8E- 8G	.	8B- 8e-	.	.	.
=187	=187	=187	=187	=187	=187	=187	=187
8BB-	.	8E- 8G	.	8B- 8e-	.	2ee-]	.
8AA-	.	8E- 8G	.	8B- 8e-	.	.	.
8GG	.	8E- 8G	.	8B- 8e-	.	.	.
8FF	.	8E- 8G	.	8B- 8e-	.	.	.
8EE-	.	8E- 8G	.	8B- 8e-	.	(8ff	.
8DD-	.	8E- 8G	.	8B- 8e-	.	8gg)	.
=188	=188	=188	=188	=188	=188	=188	=188
8CC	.	8E- 8A-	.	8c 8e-	.	(2bb-	.
8C	.	8E- 8A-	.	8c 8e-	.	.	.
8C	.	8E- 8A-	.	8c 8e-	.	.	.
8c	.	8E- 8A-	.	8c 8e-	.	.	.
8c	.	[4a-	f	8c 8e-	.	[4aa-)	.
8c	.	.	.	8c 8e-	.	.	.
=189	=189	=189	=189	=189	=189	=189	=189
8c	.	2a-]	.	8c 8e-	.	4.aa-]	.
8c	.	.	.	8c 8e-	.	.	.
8c	.	.	.	8c 8e-	.	.	.
8c	.	.	.	8c 8e-	.	8c	.
8c	.	(8b-	.	8c 8e-	.	8B-	.
8c	.	8cc)	.	8c 8e-	.	8A-	.
=190	=190	=190	=190	=190	=190	=190	=190
8B-	.	2ee-	.	8d- 8e-	.	8G 8e-	.
8B-	.	.	.	8d- 8e-	.	8G 8e-	.
8B-	.	.	.	8d- 8e-	.	8G 8e-	.
8B-	.	.	.	8d- 8e-	.	8G 8e-	.
(8B-	.	(8dd-	.	[4ee-	.	8G 8e-	.
8A-)	.	8cc)	.	.	.	8A- 8e-	.
=191	=191	=191	=191	=191	=191	=191	=191
(8A-	.	(8cc	.	2ee-]	.	8B- 8e-	.
8G)	.	8b-)	.	.	.	8B- 8e-	.
8F	.	8a-	.	.	.	8B- 8e-	.
8E-	.	8g	.	.	.	8B- 8e-	.
8D-	.	8f	.	(8ff	.	8B- 8e-	.
8BB-	.	8d-	.	8gg)	.	8B- 8e-	.
=192	=192	=192	=192	=192	=192	=192	=192
8AA-	.	8c	.	(2bb-	.	8c 8e-	.
8GG-	.	8E- 8c	.	.	.	8c 8e-	.
8GG-	.	8E- 8c	.	.	.	8c 8e-	.
8GG-	.	8E- 8c	.	.	.	8c 8e-	.
8GG-	.	8E- 8c	.	4aa-)	.	[4a-	.
8GG-	.	8E- 8c	.	.	.	.	.
=193	=193	=193	=193	=193	=193	=193	=193
8GG-	.	8E- 8c	.	2.gg-	.	2a-]	.
8EE- 8AA-	.	8G-	.	.	.	.	.
8EE- 8AA-	.	8G-	.	.	.	.	.
8EE- 8AA-	.	8G-	.	.	.	.	.
8EE- 8AA-	.	8G-	.	.	.	(8b-	.
8EE- 8AA-	.	8C 8A-	.	.	.	8cc)	.
=194	=194	=194	=194	=194	=194	=194	=194
8DD- 8AA-	.	8D- 8A-	.	[2.ff	.	(8ee-	.
8DD- 8AA-	.	8D- 8A-	.	.	.	8dd-)	.
8DD- 8AA	.	8D- 8A	.	.	.	8cc	.
8DD- 8BB-	.	8D- 8B-	.	.	.	8b-	.
8DD- 8BB-	.	8D- 8B-	.	.	.	8ee	.
8DD- 8BB-	.	8D- 8B-	.	.	.	8ff	.
=195	=195	=195	=195	=195	=195	=195	=195
8EE- 8BB-	.	8E- 8B-	.	4ff]	.	(8ff	.
8EE- 8BB-	.	8E- 8B-	.	.	.	8ee-)	.
8EE- 8BB-	.	8E- 8B-	.	[2gg	.	8dd-	.
8EE- 8C	.	8E- 8c	.	.	.	8cc	.
8EE- 8D-	.	8E- 8d-	.	.	.	8b-	.
8EE- 8GG	.	8E- 8G	.	.	.	8ee-	.
=196	=196	=196	=196	=196	=196	=196	=196
8EE	.	8C 8G	.	4gg]	.	(8dd-	.
8EE	.	8C 8c	.	.	.	8cc)	.
8FF	.	8C 8c	.	[2aa-	.	8b-	.
8FF	.	8C 8c	.	.	.	8a-	.
8DD	.	8F 8B-	.	.	.	8ee	.
8DD	.	8F 8B-	.	.	.	8ff	.
=197	=197	=197	=197	=197	=197	=197	=197
8DD	.	8D 8B-	.	4aa-]	.	(8ff	.
8EE-	.	8E- 8c	.	.	.	8ee-)	.
8EE-	.	8E- 8G	.	8bb-	.	8dd-	.
8EE-	.	8E- 8A-	.	8ccc	.	8cc	.
8EE-	.	8E- 8B-	.	8ddd-	.	8b-	.
8E-	.	8e-	.	8G	.	8ee-	.
=198	=198	=198	=198	=198	=198	=198	=198
4AA-	.	4A-	.	4A-	.	4A-	.
4r	.	4r	.	4r	.	4r	.
4r	.	8cc	p	4r	.	8ccc	p
.	.	8dd-	.	.	.	8ddd-	.
=199	=199	=199	=199	=199	=199	=199	=199
2.r	.	(8dd-	.	2.r	.	(8ddd-	.
.	.	8cc)	.	.	.	8ccc)	.
.	.	8b-	.	.	.	8bb-	.
.	.	8a-	.	.	.	8aa-	.
.	.	8g	.	.	.	8gg	.
.	.	8cc	.	.	.	8ccc	.
=200	=200	=200	=200	=200	=200	=200	=200
2.r	.	4f	.	4r	.	4ff	.
.	.	4b-	.	4r	.	4bb-	.
.	.	4e	.	4g	p	4ee	.
=201	=201	=201	=201	=201	=201	=201	=201
(2C	p	4a-	.	4f	.	4aa-	.
.	.	(8f	.	(8a-	.	4dd	.
.	.	8g)	.	8b-)	.	.	.
8BB-	.	(8g	.	(8b-	.	(8gg	.
8AA-)	.	8a-)	.	8cc)	.	8ff)	.
=202	=202	=202	=202	=202	=202	=202	=202
4GG	.	4b-	.	4cc	.	4ee	.
4FF	.	4a-	.	4cc	.	4ff	.
8B	.	4r	.	8b	.	4r	.
8c	.	.	.	8cc	.	.	.
=203	=203	=203	=203	=203	=203	=203	=203
(8c	.	2.r	.	(8cc	.	2.r	.
8B-)	.	.	.	8b-)	.	.	.
8A-	.	.	.	8a-	.	.	.
8G	.	.	.	8g	.	.	.
8F	.	.	.	8f	.	.	.
8B-	.	.	.	8b-	.	.	.
=204	=204	=204	=204	=204	=204	=204	=204
4E-	.	2.r	.	4e-	.	(8cc	p
.	.	.	.	.	.	8b-)	.
4A-	.	.	.	4a-	.	8a-	.
.	.	.	.	.	.	8g	.
4D	.	.	.	4d	.	8f	.
.	.	.	.	.	.	8b-	.
=205	=205	=205	=205	=205	=205	=205	=205
4G	.	(4.E-	.	4g	.	(2bb-	.
4C	.	.	.	4c	.	.	.
.	.	8C	.	.	.	.	.
(8F	.	8D	.	(8f	.	8aa-	.
8E-)	.	8E-)	.	8e-)	.	8gg)	.
=206	=206	=206	=206	=206	=206	=206	=206
8E-	.	8F	.	8A- 8d	.	(8gg	.
4E-	.	4F	.	4dd	.	8ff	.
.	.	.	.	.	.	8a-	.
4E-	.	(8G	.	4ee-	.	8g	.
.	.	8F	.	.	.	8a-	.
8E-	.	8c-)	.	8ff	.	8d)	.
=207	=207	=207	=207	=207	=207	=207	=207
[2.EE-	p	(2.B-	.	(2.gg	p	(8G	p
.	.	.	.	.	.	8e-	.
.	.	.	.	.	.	8d	.
.	.	.	.	.	.	8e-	.
.	.	.	.	.	.	8f	.
.	.	.	.	.	.	8g)	.
=208	=208	=208	=208	=208	=208	=208	=208
2.EE-_	.	2A-	.	2ff	.	8c-	.
.	.	.	.	.	.	8a-	.
.	.	.	.	.	.	8g	.
.	.	.	.	.	.	8a-	.
.	.	8G	.	8ee-	.	8b-	.
.	.	8F)	.	8dd)	.	8cc-	.
=209	=209	=209	=209	=209	=209	=209	=209
2.EE-_	.	(2A-	.	(4ff	.	(8d	.
.	.	.	.	.	.	8ff	.
.	.	.	.	4cc-	.	8ee	.
.	.	.	.	.	.	8ff	.
.	.	8G	.	8b-	.	8gg	.
.	.	8F)	.	8a-)	.	8aa-)	.
=210	=210	=210	=210	=210	=210	=210	=210
2EE-]	.	(4F	.	(4a-	.	(8aa	.
.	.	.	.	.	.	8bb-)	.
.	.	[2E-)	.	4g	.	(8bb-	.
.	.	.	.	.	.	8ccc)	.
4FF	.	.	.	4a-)	.	(8ccc	.
.	.	.	.	.	.	8bb-)	.
=211	=211	=211	=211	=211	=211	=211	=211
2.GG	.	2.E-_	.	4b-	.	(4bb-	.
.	.	.	.	(4B-	.	4eee-	.
.	.	.	.	4B)	.	4ddd)	.
=212	=212	=212	=212	=212	=212	=212	=212
[2.AA-	.	(2E-]	.	[2.c	.	(4ddd	.
.	.	.	.	.	.	4bb	.
.	.	4E	.	.	.	8ddd	.
.	.	.	.	.	.	8ccc)	.
=213	=213	=213	=213	=213	=213	=213	=213
2AA-]	.	8F	.	(8c]	.	(8ccc	.
.	.	8E	.	8g	.	8gg	.
.	.	8G	.	8b-	.	8bb-	.
.	.	8F	.	8a-	.	8aa-	.
[4AA	.	[4G-)	.	8cc	.	8ccc	.
.	.	.	.	[8c)	.	8cc)	.
=214	=214	=214	=214	=214	=214	=214	=214
8AA]	p	8G-]	p	8c]	.	(8ee-	p
4AA-	.	4F	.	4c-	.	8dd	.
.	.	.	.	.	.	8ddd)	.
4GG	.	4G	.	4B-	.	4eee-	.
8FF	.	8A-	.	8d	.	8fff	.
=215	=215	=215	=215	=215	=215	=215	=215
8EE-	.	[2.E-	.	(8e-	.	2.ggg	.
8E-	.	.	.	8g	.	.	.
(8D	.	.	.	8f	.	.	.
8E-	.	.	.	8g	.	.	.
8F	.	.	.	8a-	.	.	.
8G)	.	.	.	8b-)	.	.	.
=216	=216	=216	=216	=216	=216	=216	=216
8A-	.	2.E-_	.	(8cc-	.	2fff	.
(8A-	.	.	.	8f	.	.	.
8G	.	.	.	8e	.	.	.
8A-	.	.	.	8f	.	.	.
8B-	.	.	.	8g	.	8eee-	.
8c-)	.	.	.	8a-)	.	8ddd)	.
=217	=217	=217	=217	=217	=217	=217	=217
8D	.	2.E-_	.	(8a-	.	(4fff	.
8f	.	.	.	8d)	.	.	.
8f	.	.	.	(8d	.	4ccc-	.
8f	.	.	.	8dd	.	.	.
*clefC4	*clefG2	*	*	*	*	*	*
(8g	.	.	.	8ee-	.	8bb-	.
8a-)	.	.	.	8ff)	.	8aa-)	.
=218	=218	=218	=218	=218	=218	=218	=218
(4a-	.	4E-]	.	(4ff	.	(4aa-	.
4g	.	(4E-	.	[2ee-)	.	4gg	.
4a-	.	4F	.	.	.	4aa-)	.
=219	=219	=219	=219	=219	=219	=219	=219
4b-	.	2.G	.	(4ee-]	.	(8aa	.
.	.	.	.	.	.	8bb-	.
4ee-	.	.	.	[2e-)	.	8ccc	.
.	.	.	.	.	.	8bb-)	.
[4dd)	.	.	.	.	.	8bb	.
.	.	.	.	.	.	8bb	.
=220	=220	=220	=220	=220	=220	=220	=220
(4dd]	.	2.A-)	.	(2e-]	.	(8bb	.
.	.	.	.	.	.	8ddd)	.
4b	.	.	.	.	.	(8ddd	.
.	.	.	.	.	.	8bb	.
8dd)	.	.	.	[4e)	.	8ddd	.
8cc	.	.	.	.	.	8ccc)	.
=221	=221	=221	=221	=221	=221	=221	=221
(8cc	.	2A-	.	8e]	.	(8ccc	.
8g	.	.	.	(8e	.	8gg	.
8b-	.	.	.	8g	.	8bb-	.
8a-)	.	.	.	8f)	.	8aa-)	.
*clefF4	*clefF4	*	*	*	*	*	*
8D	.	8F	.	8f	.	8aa-	.
8C	.	8E-	.	8ff	.	8aa-	.
=222	=222	=222	=222	=222	=222	=222	=222
8BB	f	8D	.	8ff	f	8aa-	f
8C	.	8E-	.	8ee-	.	8gg	.
8C	.	8E-	.	8ee-	.	8gg	.
8AA-	.	8F	.	8cc	.	8aa-	.
8BB-	.	8B-	.	8ee-	.	8gg	.
8AA-	.	8b-	.	8dd	.	8ff	.
=223	=223	=223	=223	=223	=223	=223	=223
(4GG	p	4b-	p	[2.ee-	p	4bb-	p
4C	.	4r	.	.	.	4r	.
4AA-	.	(8cc	.	.	.	(8ccc	.
.	.	8b-)	.	.	.	8bb-)	.
=224	=224	=224	=224	=224	=224	=224	=224
4FF	.	4b-	.	(4ee-]	.	4bb-	.
4BB-	.	4r	.	4dd	.	4r	.
4GG)	.	(8cc	.	4ee-)	.	(8ccc	.
.	.	8b-)	.	.	.	8bb-)	.
=225	=225	=225	=225	=225	=225	=225	=225
[2.e-	.	4b-	.	4g 4ee-	.	4bb-	.
.	.	4r	.	4r	.	(4cc	.
.	.	(8cc	.	(8c	.	4a-	.
.	.	8b-)	.	8B-)	.	.	.
=226	=226	=226	=226	=226	=226	=226	=226
(4e-]	.	4b-	.	4B-	.	4f	.
4d	.	4r	.	4r	.	4b-	.
4e-)	.	(8cc	.	(8c	.	4g)	.
.	.	8b-)	.	8B-)	.	.	.
=227	=227	=227	=227	=227	=227	=227	=227
4BB-	.	[2.ee-	.	[2.e-	.	(4gg	.
4r	.	.	.	.	.	4ccc	.
(8C	.	.	.	.	.	4aa-	.
8BB-)	.	.	.	.	.	.	.
=228	=228	=228	=228	=228	=228	=228	=228
4BB-	.	(4ee-]	.	(4e-]	.	4ff	.
4r	.	4dd	.	4d	.	4bb-	.
(8C	.	4ee-)	.	4e-)	.	4gg)	.
8BB-)	.	.	.	.	.	.	.
=229	=229	=229	=229	=229	=229	=229	=229
8GG	f	8B-	f	8e-	.	4ee-	f
8GG	.	8B-	.	8b-	.	.	.
8C	.	8e-	.	8a-	.	[2eee-	.
8BB-	.	8d	.	8g	.	.	.
8AA-	.	8c	.	8f	.	.	.
8GG	.	8B-	.	8e-	.	.	.
=230	=230	=230	=230	=230	=230	=230	=230
8FF	.	8A-	.	8a-	.	4eee-]	.
8FF	.	8A-	.	8a-	.	.	.
8BB-	.	8F 8A-	.	8g	.	2ddd	.
8AA-	.	8f	.	8dd	.	.	.
8GG	.	8g	.	8ee-	.	.	.
8FF	.	8a-	.	8ff	.	.	.
=231	=231	=231	=231	=231	=231	=231	=231
4EE-	.	4B- 4g	.	4gg	.	4eee-	.
4EE-	.	4E-	.	4G 4e-	.	4G 4e-	.
4EE-	.	4E-	.	4G 4e-	.	4G 4e-	.
=232	=232	=232	=232	=232	=232	=232	=232
4EE-	.	4E-	.	4G 4e-	.	4G 4e-	.
4r	.	4B-	p	4r	.	4r	.
4r	.	4B-	.	4r	.	4r	.
=233	=233	=233	=233	=233	=233	=233	=233
4r	.	[2.B-	.	4r	.	2.r	.
4g	p	.	.	4ee-	p	.	.
4g	.	.	.	4ee-	.	.	.
=234	=234	=234	=234	=234	=234	=234	=234
4a-	.	4B-]	.	4ff	.	4r	.
4C-	.	4F 4A-	.	4f 4dd	.	4ddd	p
4BB-	.	4F 4A-	.	4f 4dd	.	4ddd	.
=235	=235	=235	=235	=235	=235	=235	=235
4EE-	f	4E- 4G	f	4g 4ee-	.	4eee-	f
4EE-	.	4E- 4G	.	4G 4e-	.	4G 4e-	.
4EE-	.	4E- 4G	.	4G 4e-	.	4G 4e-	.
=236	=236	=236	=236	=236	=236	=236	=236
4EE-	.	4E- 4G	.	4G 4e-	.	4G 4e-	.
4B-	p	4r	.	4r	.	4r	.
4B-	.	4r	.	4r	.	4r	.
=237	=237	=237	=237	=237	=237	=237	=237
[2.B-	.	4r	.	4r	.	2.r	.
.	.	4g	p	4ee-	p	.	.
.	.	4g	.	4ee-	.	.	.
=238	=238	=238	=238	=238	=238	=238	=238
4B-]	.	4a-	.	4ff	.	4r	.
4C-	.	4F	.	4a-	.	4ddd	p
4BB-	.	4F	.	4a-	.	4ddd	.
=239	=239	=239	=239	=239	=239	=239	=239
2.r	.	2.r	.	2.r	.	2.r	.
=240	=240	=240	=240	=240	=240	=240	=240
4r	.	4r	.	4r	.	4r	.
4B-	.	4f	.	4a-	.	4dd	.
4B-	.	4f-	.	4g	.	4dd-	.
=241	=241	=241	=241	=241	=241	=241	=241
(2.c	.	[2.e-	.	4r	.	(4ee-	.
.	.	.	.	(4c	.	4aa-	.
.	.	.	.	[4a-)	.	4ff)	.
=242	=242	=242	=242	=242	=242	=242	=242
2.B-	.	2.e-_	.	(2a-]	.	(8ee-	.
.	.	.	.	.	.	8dd-)	.
.	.	.	.	.	.	(8dd-	.
.	.	.	.	.	.	8cc	.
.	.	.	.	4g)	.	4dd-)	.
=243	=243	=243	=243	=243	=243	=243	=243
2.A-	.	(4e-]	.	(4e-	.	(2.cc	.
.	.	[2c)	.	4a-	.	.	.
.	.	.	.	4f)	.	.	.
=244	=244	=244	=244	=244	=244	=244	=244
2.G)	.	2.c]	.	(8f	.	2.b-	.
.	.	.	.	8e)	.	.	.
.	.	.	.	(8e	.	.	.
.	.	.	.	8d	.	.	.
.	.	.	.	4e)	.	.	.
=245	=245	=245	=245	=245	=245	=245	=245
(2.F	.	(4c	.	([2.f	.	2.a-	.
.	.	4f	.	.	.	.	.
.	.	4d)	.	.	.	.	.
=246	=246	=246	=246	=246	=246	=246	=246
2.G	.	(8c	.	4f]	.	2.g	.
.	.	8B-)	.	.	.	.	.
.	.	(8B-	.	2e-	.	.	.
.	.	8A	.	.	.	.	.
.	.	4B-)	.	.	.	.	.
=247	=247	=247	=247	=247	=247	=247	=247
2.A-	.	(8c	.	2.d	.	2.f	.
.	.	8B-)	.	.	.	.	.
.	.	(8B-	.	.	.	.	.
.	.	8A	.	.	.	.	.
.	.	4B-)	.	.	.	.	.
=248	=248	=248	=248	=248	=248	=248	=248
2.G)	.	(8cc	.	2.e-)	.	2.g)	.
.	.	8b-)	.	.	.	.	.
.	.	(8b-	.	.	.	.	.
.	.	8a	.	.	.	.	.
.	.	8b-)	.	.	.	.	.
.	.	[8B-	.	.	.	.	.
=249	=249	=249	=249	=249	=249	=249	=249
(2.F	.	(2B-]	.	(2.a-	.	(4cc	.
.	.	.	.	.	.	4ff	.
.	.	[4f	.	.	.	4dd)	.
=250	=250	=250	=250	=250	=250	=250	=250
2.G	.	2f]	.	2.g	.	(8cc	.
.	.	.	.	.	.	8b-)	.
.	.	.	.	.	.	(8b-	.
.	.	.	.	.	.	8a	.
.	.	[4e-)	.	.	.	4b-)	.
=251	=251	=251	=251	=251	=251	=251	=251
2.A-	.	(2e-]	.	2.f	.	(8cc	.
.	.	.	.	.	.	8b-)	.
.	.	.	.	.	.	(8b-	.
.	.	.	.	.	.	8a	.
.	.	[4d	.	.	.	4b-)	.
=252	=252	=252	=252	=252	=252	=252	=252
2.G)	.	4d]	.	2.g)	.	(8cc	.
.	.	.	.	.	.	8b-)	.
.	.	4e-	.	.	.	(8b-	.
.	.	.	.	.	.	8a	.
.	.	[4ee-)	.	.	.	4b-)	.
=253	=253	=253	=253	=253	=253	=253	=253
(2.F	.	(4ee-]	.	(4cc	.	(2.aa-	.
.	.	4dd	.	4ff	.	.	.
.	.	[4ff	.	8dd	.	.	.
.	.	.	.	8cc)	.	.	.
=254	=254	=254	=254	=254	=254	=254	=254
2.G)	.	2ff]	.	(8cc	.	2.gg	.
.	.	.	.	8b-)	.	.	.
.	.	.	.	(8b-	.	.	.
.	.	.	.	8a	.	.	.
.	.	[4ee-)	.	4b-)	.	.	.
=255	=255	=255	=255	=255	=255	=255	=255
2.A-	.	(2ee-]	.	(8cc	.	2.ff	.
.	.	.	.	8b-)	.	.	.
.	.	.	.	(8b-	.	.	.
.	.	.	.	8a	.	.	.
.	.	[4dd	.	4b-)	.	.	.
=256	=256	=256	=256	=256	=256	=256	=256
[2.G	.	4dd]	.	(8ccc	.	2.gg	.
.	.	.	.	8bb-)	.	.	.
.	.	4ee-	.	(8bb-	.	.	.
.	.	.	.	8aa	.	.	.
.	.	4e-)	.	8bb-	.	.	.
.	.	.	.	8b-)	.	.	.
=257	=257	=257	=257	=257	=257	=257	=257
(2G]	.	(8e-	.	(8cc	.	2.aa-	.
.	.	8d)	.	8b-)	.	.	.
.	.	(8d	.	(8b-	.	.	.
.	.	8c	.	8a	.	.	.
[4F	.	4d)	.	4b-)	.	.	.
=258	=258	=258	=258	=258	=258	=258	=258
2F]	.	(8A-	.	(8b- 8ff	.	2.bb-)	.
.	.	8G)	.	8ee-)	.	.	.
.	.	(8G	.	(8ee-	.	.	.
.	.	8F	.	8dd	.	.	.
[4E-)	.	4G)	.	4ee-)	.	.	.
=259	=259	=259	=259	=259	=259	=259	=259
2E-]	p	(8F	.	(8dd	p	[2.ccc	p
.	.	8E-)	.	8cc)	.	.	.
.	.	(8E-	.	(8cc	.	.	.
.	.	8D	.	8b	.	.	.
[4AA	.	8C	.	4f) 4cc	.	.	.
.	.	8D)	.	.	.	.	.
=260	=260	=260	=260	=260	=260	=260	=260
2AA]	.	(8F	.	(8dd	.	(4ccc]	.
.	.	8E-)	.	8cc)	.	.	.
.	.	(8E-	.	(8cc	.	4ddd	.
.	.	8D	.	8b	.	.	.
[4AA	.	8C	.	[4f) [4cc	.	4eee-)	.
.	.	8D	.	.	.	.	.
=261	=261	=261	=261	=261	=261	=261	=261
4AA]	.	8E-	.	(4f] 4cc]	.	(4eee-	.
.	.	8F	.	.	.	.	.
4BB-	.	4G)	.	4g 4b-	.	4bb-	.
[4f	.	(8B-	.	[4a-)	.	[4aa-)	.
.	.	8B	.	.	.	.	.
=262	=262	=262	=262	=262	=262	=262	=262
4f]	.	4c	.	(4a-]	.	(4aa-]	.
(8e-	.	4d-	.	4g	.	4gg	.
8e	.	.	.	.	.	.	.
8f	.	8c	.	8a-	.	8aa-	.
8g)	.	8B-)	.	8b-)	.	8bb-)	.
=263	=263	=263	=263	=263	=263	=263	=263
4a-	.	(8F	.	(8dd	.	(2.ccc	.
.	.	8E-)	.	8cc)	.	.	.
4AA-	.	(8E-	.	(8cc	.	.	.
.	.	8D	.	8b	.	.	.
[4AA	.	8C	.	4cc)	.	.	.
.	.	8D	.	.	.	.	.
=264	=264	=264	=264	=264	=264	=264	=264
2AA]	.	8F	.	(8dd	.	4ccc)	.
.	.	8E-)	.	8cc)	.	.	.
.	.	(8E-	.	(8cc	.	4ddd	.
.	.	8D	.	8b	.	.	.
(4AA-	.	8C	.	8f 8cc	.	&([4eee-&)	.
.	.	8D)	.	8f)	.	.	.
=265	=265	=265	=265	=265	=265	=265	=265
4BB-	.	(2.E-	.	(4g	.	(4eee-]	.
4AA-	.	.	.	4a-	.	4fff	.
4GG	.	.	.	[4b-	.	[4ggg)	.
=266	=266	=266	=266	=266	=266	=266	=266
4FF	.	4D-	.	4b-]	.	(4ggg]	.
4EE-	.	4C	.	4cc	.	4aaa-)	.
8DD-	.	8F	.	8dd-	.	4aaa-	.
8CC)	.	8E-)	.	8ee-)	.	.	.
=267	=267	=267	=267	=267	=267	=267	=267
(4CC	.	(4E-	.	(8ee-	.	(2.aaa-	.
.	.	.	.	8a-)	.	.	.
4FF	.	4A-	.	(8a-	.	.	.
.	.	.	.	8g	.	.	.
[4DD	.	4F	.	4a-)	.	.	.
=268	=268	=268	=268	=268	=268	=268	=268
4DD]	.	&(4F&)	.	(8cc	.	2.ggg	.
.	.	.	.	8b-)	.	.	.
4GG	.	4B-	.	(8b-	.	.	.
.	.	.	.	8a	.	.	.
[4EE-)	.	[4G)	.	4b-)	.	.	.
=269	=269	=269	=269	=269	=269	=269	=269
(4EE-]	.	(4G]	.	(8ee-	.	[2.fff)	.
.	.	.	.	8dd)	.	.	.
4AA-	.	4c	.	(8dd	.	.	.
.	.	.	.	8cc	.	.	.
[4FF	.	[4A-	.	4dd)	.	.	.
=270	=270	=270	=270	=270	=270	=270	=270
4FF]	.	4A-]	.	(8ff	.	(4fff]	.
.	.	.	.	8ee-)	.	.	.
4BB-	.	4d-	.	(8ee-	.	4eee-	.
.	.	.	.	8dd	.	.	.
4GG)	.	4B-)	.	8ee-	.	4ddd-)	.
.	.	.	.	8dd-	.	.	.
=271	=271	=271	=271	=271	=271	=271	=271
2AA-	.	2c	.	4cc	.	(8ccc	.
.	.	.	.	.	.	8cc	.
.	.	.	.	4ff	.	8ee-	.
.	.	.	.	.	.	8ff	.
[4A-	.	[4B-	.	4dd	.	8gg	.
.	.	.	.	.	.	8aa-	.
=272	=272	=272	=272	=272	=272	=272	=272
(4A-]	.	4B-]	.	4b-	.	8bb-	.
.	.	.	.	.	.	8ccc	.
4G	.	(4B-	.	4ee-	.	8ddd	.
.	.	.	.	.	.	8eee-	.
4E-	.	4G	.	4cc)	.	8fff	.
.	.	.	.	.	.	8ggg)	.
=273	=273	=273	=273	=273	=273	=273	=273
4BB-	.	4F	.	(4dd	.	(8bbb-	.
.	.	.	.	.	.	8aaa-)	.
4B-	.	4d	.	8ff	.	(8aaa-	.
.	.	.	.	8ee-	.	8ggg	.
8c	.	8e-	.	4b-) 4ff	.	4aaa-)	.
8d)	.	8f)	.	.	.	.	.
=274	=274	=274	=274	=274	=274	=274	=274
4e-	.	(8f	.	(4b- 4gg	.	(4ggg	.
.	.	4e-	.	.	.	.	.
4r	.	.	.	[2ee-)	.	8gg	.
.	.	8f	.	.	.	8aa-	.
4r	.	4g	.	.	.	8bb-	.
.	.	.	.	.	.	8bb)	.
=275	=275	=275	=275	=275	=275	=275	=275
2.r	.	2.a-	.	(2ee-]	.	(4ccc	.
.	.	.	.	.	.	4fff	.
.	.	.	.	[4ff	.	4ddd	.
=276	=276	=276	=276	=276	=276	=276	=276
2.r	.	2.g)	.	2ff]	.	4bb-	.
.	.	.	.	.	.	4eee-	.
.	.	.	.	[4ee-)	.	4ccc)	.
=277	=277	=277	=277	=277	=277	=277	=277
2.r	.	[2.f	p	(2ee-]	p	(8bb-	p
.	.	.	.	.	.	8aa-)	.
.	.	.	.	.	.	(8aa-	.
.	.	.	.	.	.	8gg	.
.	.	.	.	[4dd)	.	4aa-)	.
=278	=278	=278	=278	=278	=278	=278	=278
4r	.	(4f]	.	(2dd]	.	4gg	.
4r	.	4e-	.	.	.	4r	.
4B-	p	4g	.	4e-) 4ee-	.	4r	.
=279	=279	=279	=279	=279	=279	=279	=279
(8B-	.	[2.f)	.	(2ee-	.	2.r	.
8A-)	.	.	.	.	.	.	.
(8A-	.	.	.	.	.	.	.
8G	.	.	.	.	.	.	.
4A-)	.	.	.	[4dd	.	.	.
=280	=280	=280	=280	=280	=280	=280	=280
4G	.	(4f]	.	2dd]	.	4r	.
4r	.	4e-)	.	.	.	4r	.
4BB-	pp	4e-	pp	4g) 4ee-	.	[4eee-	pp
=281	=281	=281	=281	=281	=281	=281	=281
(8C	.	(2.f	.	(2.a-	.	(8eee-]	.
8BB-)	.	.	.	.	.	8ddd)	.
(8BB-	.	.	.	.	.	(8ddd	.
8AA	.	.	.	.	.	8ccc	.
4BB-)	.	.	.	.	.	4ddd)	.
=282	=282	=282	=282	=282	=282	=282	=282
4EE-	.	4e-)	.	4g)	.	4eee-	.
4r	.	4r	.	4r	.	4r	.
4r	.	4r	.	4r	.	4r	.
==	==	==	==	==	==	==	==
*-	*-	*-	*-	*-	*-	*-	*-
!!!ENC: Craig Stuart Sapp
!!!END: 2004/09/06/
!!!RWG: No grace notes; no articulations
